!!!COM: Stadler, Maximilian
!!!CDT: 1748///-1833///
!!!COA: Haydn, Joseph
!!!OTL@@IT: Gioco filarmonico
!!!OTL@EN: Philharmonic Joke
!!!OTA@@IT: o sia maniera facile per comporre un infinito numero de minuetti e trio anche senza sapere il contrapunto
!!!OTA@EN: or the Art of Composing an Infinite Number of Minutes Without the Least Knowledge of Counterpoint
!!!PDT: 1781///
!!!PPR: Artaria
!!!SML: Gesellschaft der Musikfreundes, Vienna
!!!PPR2: Luigi Marescalchi
!!!PPP2: Napoli
!!!PDT2: 1790///
**kern	**kern	**kern
*Icello	*Ivioln	*Ivioln
*>[A,A,B,B,A]	*>[A,A,B,B,A]	*>[A,A,B,B,A]
*>norep[A,B]	*>norep[A,B]	*>norep[A,B]
*>A	*>A	*>A
*k[]	*k[]	*k[]
*M3/4	*M3/4	*M3/4
*MM120	*MM120	*MM120
!!section:  I
!!measure:  A
!!diceroll: 10
=98	=98	=98
4C	4e	4cc
4E	4g	16b
.	.	8.cc
4E	4g	16b
.	.	8.cc
!!section:  I
!!measure:  B
!!diceroll: 4
=95	=95	=95
4E	2.G	4cc
4BB	.	16dd
.	.	16ee
.	.	16ff
.	.	16dd
4C	.	4ee
!!section:  I
!!measure:  C
!!diceroll: 8
=171	=171	=171
4A	4c	4ff
4B	4d	16gg
.	.	16ff
.	.	16ee
.	.	16dd
4c	4g	16ff
.	.	16ee
.	.	16dd
.	.	16cc
!!section:  I
!!measure:  D
!!diceroll: 5
=85	=85	=85
4G	4a	4cc
4D	16g	16b
.	16f#	16a
.	16g	16b
.	16a	16cc
4GG	4b	4dd
!!section:  I
!!measure:  E
!!diceroll: 4
=153	=153	=153
4r	4r	8f#
.	.	8cc
4A	4c	8cc
.	.	8b
4A	4c	8b
.	.	8a
!!section:  I
!!measure:  F
!!diceroll: 8
=133	=133	=133
4B	4g	12dd
.	.	12gg
.	.	12ff#
4r	4r	12ee
.	.	12dd
.	.	12cc
4r	4r	12b
.	.	12a
.	.	12g
!!section:  I
!!measure:  G
!!diceroll: 7
=118	=118	=118
2C	2e	8r
.	.	8g#
.	.	8a
.	.	8cc
4D	8c	8f#
.	8f#	8a
!!section:  I
!!measure:  H
!!diceroll: 10
=123	=123	=123
4G	2.g	2.g
4D	.	.
4GG	.	.
*>B	*>B	*>B
!!section:  II
!!measure:  A
!!diceroll: 3
=117	=117	=117
8r	2e	2cc#
8B-	.	.
8A	.	.
8G	.	.
8F	4e	4cc#
8E	.	.
!!section:  II
!!measure:  B
!!diceroll: 5
=176	=176	=176
4D	12d	8ee
.	12f	.
.	.	8ff
.	12a	.
4D	12d	2dd
.	12f	.
.	12a	.
4D	12d	.
.	12f	.
.	12a	.
!!section:  II
!!measure:  C
!!diceroll: 5
=7	=7	=7
4r	4r	8g#
.	.	8g
4B	4d	4.g
4B	4d	.
.	.	8gg
!!section:  II
!!measure:  D
!!diceroll: 8
=175	=175	=175
4r	4r	16dd
.	.	16cc
.	.	16b
.	.	16cc
4C	12e	2g
.	12g	.
.	12cc	.
4C	12e	.
.	12g	.
.	12cc	.
!!section:  II
!!measure:  E
!!diceroll: 10
=137	=137	=137
2.F	4r	8r
.	.	8a
.	4A	8cc#
.	.	8dd
.	4d	8ff
.	.	8aa
!!section:  II
!!measure:  F
!!diceroll: 5
=160	=160	=160
4r	4r	12f
.	.	12ff
.	.	12dd
4G	4d	12b
.	.	12dd
.	.	12f
4A	4c	4e
!!section:  II
!!measure:  G
!!diceroll: 10
=149	=149	=149
2F	4A	16a
.	.	16cc#
.	.	16dd
.	.	16ff
.	4f	4aa
4G	4d	4b
!!section:  II
!!measure:  H
!!diceroll: 8
=172	=172	=172
4C	2.cc	2.cc
8.GG	.	.
16EE	.	.
4CC	.	.
*-	*-	*-
!!!END: 2004/11/01/
